lib/logo_tmp/nrk-logo-nrk-sapmi-title-below.svg

<svg width="55" height="40" viewBox="0 0 55 40" fill="none" xmlns="http://www.w3.org/2000/svg">
<path d="M0 15.0033V1.00453H4.59339V15.0033H0ZM10.8428 3.2325L13.4844 15.0033H8.45737L5.30307 1.00453H8.12254C8.76907 0.996136 9.39641 1.22405 9.88691 1.64538C10.3782 2.04903 10.7158 2.6094 10.8428 3.2325ZM14.1744 15.0033V1.00453H18.7678V15.0033H14.1744ZM22.2372 6.32804C21.7422 6.33286 21.2552 6.20336 20.828 5.95338C20.4064 5.70973 20.0563 5.35954 19.8127 4.93795C19.5624 4.51064 19.4329 4.02348 19.4378 3.52829C19.4321 3.03613 19.5618 2.55186 19.8127 2.12842C20.0589 1.71141 20.4086 1.36503 20.828 1.12286C21.2553 0.873175 21.7423 0.743689 22.2372 0.748203C22.7292 0.742904 23.2133 0.872505 23.6369 1.12286C24.0521 1.36715 24.3981 1.71324 24.6424 2.12842C24.893 2.55198 25.0226 3.03616 25.0172 3.52829C25.0218 4.02344 24.8923 4.51052 24.6424 4.93795C24.4007 5.35769 24.0542 5.70758 23.6369 5.95338C23.2133 6.20423 22.7289 6.33386 22.2366 6.32804H22.2372ZM25.7269 15.0033V1.00453H30.3207V15.0033H25.7269ZM36.136 8.65453C36.1489 8.66811 36.2475 8.82912 36.4317 9.13757C36.6159 9.44602 36.8558 9.84039 37.1513 10.3206C37.447 10.8006 37.759 11.3099 38.0874 11.8486C38.4157 12.3873 38.7247 12.8967 39.0143 13.3767C39.3028 13.8566 39.6313 14.3988 40 15.0033H34.9531C34.6375 14.4906 34.3515 14.0273 34.0952 13.6132C33.8389 13.1992 33.5665 12.7523 33.2778 12.2725C32.9884 11.7932 32.7024 11.3265 32.4196 10.8726C32.1368 10.4187 31.8938 10.0211 31.6905 9.67982C31.4863 9.33829 31.3449 9.10823 31.2663 8.98971C31.0713 8.69561 30.9559 8.35593 30.9315 8.00389C30.951 7.66601 31.0597 7.33939 31.2466 7.05722C31.3254 6.92577 31.47 6.69242 31.6803 6.35724C31.8906 6.02206 32.137 5.62448 32.4196 5.16443C32.7021 4.70438 32.9882 4.23446 33.2778 3.75469C33.5674 3.27492 33.8398 2.8247 34.0952 2.40408C34.3519 1.9839 34.6379 1.51727 34.9531 1.00421H40L36.0962 7.37267C35.9754 7.56175 35.9073 7.77966 35.8991 8.00389C35.9121 8.2393 35.9942 8.46563 36.1353 8.65453H36.136Z" fill="white"/>
<path d="M8.50584 28.4401C8.22145 28.1466 7.89152 27.9023 7.52918 27.7171C7.14933 27.5221 6.75398 27.3598 6.34737 27.2318C5.93023 27.0997 5.50051 26.9874 5.05819 26.8947C4.71918 26.8157 4.40342 26.7366 4.11085 26.6574C3.84196 26.587 3.58028 26.4907 3.32947 26.3698C3.11388 26.2663 2.91353 26.133 2.73408 25.9737C2.56503 25.8225 2.43423 25.6324 2.3528 25.4193C2.26265 25.1687 2.21962 24.9032 2.22587 24.6366C2.22147 24.3604 2.2644 24.0857 2.3528 23.8244C2.43298 23.594 2.56701 23.3867 2.74345 23.2203C2.92637 23.0504 3.13406 22.9103 3.35912 22.8046C3.61634 22.6858 3.88934 22.6056 4.16943 22.5669C4.50272 22.5188 4.83909 22.4956 5.17574 22.4976C5.48228 22.4982 5.78854 22.5146 6.09343 22.5468C6.402 22.5795 6.7086 22.6291 7.01184 22.6957C7.30621 22.7605 7.59646 22.8431 7.88104 22.9433C8.1475 23.0362 8.40567 23.1521 8.65265 23.2896L8.92614 21.5468C8.64839 21.3998 8.35724 21.2805 8.05686 21.1903C7.75062 21.098 7.44139 21.0187 7.12907 20.9522C6.81279 20.8859 6.49325 20.8365 6.17188 20.804C5.84632 20.771 5.51432 20.7544 5.17574 20.7544C4.485 20.7469 3.79602 20.8266 3.12473 20.9918C2.55316 21.1318 2.01306 21.3806 1.53311 21.7251C1.09074 22.0468 0.734775 22.4757 0.497791 22.9727C0.244933 23.5312 0.121374 24.141 0.136469 24.7554C0.125285 25.2309 0.20144 25.7044 0.361083 26.1516C0.501081 26.5266 0.717251 26.8675 0.995582 27.1522C1.27111 27.4308 1.5874 27.6647 1.93322 27.8455C2.30001 28.0372 2.68243 28.1964 3.07624 28.3213C3.48644 28.4533 3.90637 28.5656 4.3361 28.658C4.6877 28.737 5.01325 28.8196 5.31277 28.9056C5.5913 28.9834 5.86248 29.0862 6.12308 29.2126C6.34726 29.32 6.55471 29.4601 6.73874 29.6286C6.91315 29.7948 7.04969 29.9976 7.13885 30.2229C7.24257 30.4942 7.29244 30.7837 7.28565 31.0746C7.29079 31.384 7.24459 31.692 7.14894 31.9858C7.06322 32.2399 6.93058 32.4752 6.75821 32.6791C6.58496 32.8801 6.37203 33.042 6.13317 33.1542C5.86333 33.2803 5.57723 33.3671 5.28344 33.412C4.92486 33.4678 4.56248 33.4943 4.19971 33.4913C3.84703 33.4904 3.49475 33.4672 3.14491 33.4219C2.78029 33.3757 2.41553 33.3129 2.0507 33.2334C1.69143 33.1558 1.33622 33.06 0.986442 32.9462C0.640919 32.8346 0.312099 32.7192 0 32.5999L0.253943 34.5609C0.58692 34.6869 0.925962 34.7959 1.26971 34.8874C1.5817 34.9705 1.8978 35.0366 2.21673 35.0855C2.52275 35.1315 2.8289 35.1678 3.13514 35.1944C3.44138 35.2211 3.75051 35.2343 4.0626 35.2341C4.7619 35.2385 5.45961 35.1654 6.14326 35.0162C6.74836 34.8875 7.32453 34.6457 7.84234 34.3031C8.32567 33.9788 8.71646 33.5313 8.97558 33.0056C9.26075 32.3829 9.39779 31.7011 9.37569 31.0149C9.38639 30.5036 9.31053 29.9943 9.15139 29.5091C9.01483 29.1097 8.79462 28.745 8.50584 28.4401Z" fill="white"/>
<path d="M20.1965 33.7686C20.0537 33.7818 19.9098 33.7599 19.7772 33.7048C19.6445 33.6496 19.5269 33.5628 19.4344 33.4516C19.2533 33.1342 19.178 32.766 19.2198 32.4018L19.2585 28.3212C19.2629 27.8935 19.2103 27.4671 19.1023 27.0535C19.0076 26.6907 18.8487 26.3483 18.6335 26.0429C18.4161 25.7446 18.1402 25.4951 17.8232 25.31C17.4545 25.0981 17.056 24.9445 16.6415 24.8548C16.1345 24.7438 15.6169 24.6906 15.0983 24.6963C14.6868 24.696 14.2756 24.7224 13.8674 24.7752C13.4818 24.8247 13.1 24.9009 12.7247 25.0033C12.3766 25.099 12.0342 25.2147 11.6992 25.35L11.4648 27.0337C11.7903 26.9152 12.1 26.8161 12.3926 26.7366C12.6853 26.657 12.9688 26.5913 13.2423 26.5385C13.5103 26.4866 13.7812 26.4504 14.0533 26.4299C14.3198 26.4101 14.5834 26.4 14.8441 26.3998C15.2424 26.3913 15.6399 26.4379 16.0258 26.5385C16.3075 26.61 16.5664 26.7533 16.7782 26.9548C16.9667 27.1506 17.1013 27.393 17.1688 27.658C17.2521 27.9845 17.2916 28.321 17.2861 28.6583L17.2837 29.1552L15.001 29.312C14.2201 29.3341 13.4507 29.5088 12.7351 29.8267C12.1996 30.0643 11.7372 30.4442 11.3967 30.9261C11.1079 31.3549 10.9547 31.8627 10.9573 32.3819C10.9536 32.8693 11.0712 33.3498 11.2994 33.7788C11.5382 34.2193 11.8977 34.5804 12.3344 34.8184C12.8672 35.0995 13.4627 35.236 14.063 35.2146C14.6254 35.2276 15.1853 35.1337 15.7136 34.9376C16.1703 34.7564 16.5882 34.4873 16.9442 34.1452C17.0796 34.014 17.2079 33.8755 17.3287 33.7303C17.3666 33.9354 17.4381 34.1327 17.5403 34.3139C17.7143 34.6172 17.9818 34.8539 18.3017 34.9874C18.6554 35.1315 19.0341 35.2023 19.4152 35.1954C19.5327 35.1954 19.6463 35.1918 19.757 35.1855C19.8657 35.1789 19.9736 35.1622 20.0793 35.1357C20.1834 35.1093 20.2779 35.0865 20.3625 35.0663C20.4391 35.0492 20.5142 35.026 20.5871 34.997L20.8021 33.6702C20.6943 33.7076 20.5832 33.7341 20.4703 33.7494C20.3795 33.7614 20.2881 33.7678 20.1965 33.7686ZM16.9439 32.8772C16.7321 33.047 16.5029 33.1932 16.2602 33.3133C16.0184 33.4324 15.7623 33.5189 15.4984 33.5708C15.2249 33.6241 14.9468 33.6506 14.6683 33.6497C14.35 33.6591 14.0335 33.5983 13.7407 33.4714C13.5023 33.3667 13.3011 33.1906 13.1642 32.9666C13.0289 32.7292 12.9613 32.4583 12.9689 32.1842C12.95 31.8538 13.0394 31.5264 13.2231 31.2529C13.4357 31.0012 13.7238 30.8273 14.0432 30.7577C14.5423 30.6387 15.0543 30.5856 15.5668 30.5995H17.2772L17.2688 32.5655C17.1694 32.6784 17.0607 32.7829 16.9439 32.8772Z" fill="white"/>
<path d="M18.1843 19.9819H16.075L14.4146 23.5276H15.9385L18.1843 19.9819Z" fill="white"/>
<path d="M30.1679 25.3203C29.4668 24.885 28.6552 24.668 27.8337 24.6963C27.3461 24.6988 26.8607 24.7618 26.3882 24.8841C25.8777 25.016 25.3855 25.2124 24.9232 25.4688C24.8314 25.5193 24.7406 25.5754 24.6494 25.6322V24.7161L22.6574 25.033V39.1759H24.6494V34.7411C24.6628 34.7467 24.6752 34.753 24.6888 34.7589C25.0498 34.9108 25.4266 35.0204 25.812 35.0858C26.2671 35.1619 26.7278 35.1983 27.1891 35.1947C28.0685 35.2101 28.9356 34.9841 29.6988 34.5407C30.4484 34.0903 31.0576 33.4348 31.4567 32.6493C31.9178 31.7128 32.1425 30.6748 32.1108 29.6286C32.1292 28.7439 31.9595 27.8656 31.6131 27.0535C31.3075 26.3457 30.8053 25.7435 30.1679 25.3203ZM29.6503 31.9461C29.4156 32.4721 29.0224 32.909 28.5271 33.1938C27.9766 33.4862 27.361 33.6296 26.7399 33.6101C26.4423 33.6103 26.145 33.587 25.851 33.5404C25.5425 33.4906 25.2387 33.4145 24.9428 33.3129C24.849 33.2799 24.7474 33.2423 24.6497 33.206V26.9548C24.6758 26.9425 24.7025 26.9267 24.7282 26.9148C25.0147 26.7828 25.2817 26.6704 25.5291 26.5777C25.7634 26.489 26.0054 26.4227 26.2518 26.3797C26.4711 26.3414 26.6931 26.3215 26.9156 26.3202C27.5179 26.2999 28.1156 26.4327 28.6544 26.7065C29.1253 26.9665 29.494 27.3824 29.6991 27.8848C29.9476 28.5276 30.064 29.2151 30.0413 29.9052C30.062 30.6065 29.9284 31.3037 29.6503 31.9461Z" fill="white"/>
<path d="M48.0305 25.1123C47.4979 24.819 46.8977 24.6754 46.292 24.6963C45.7663 24.6949 45.2443 24.7853 44.7489 24.9637C44.2457 25.1465 43.7718 25.4033 43.3425 25.726C43.0992 25.909 42.8677 26.1074 42.6494 26.3203C42.4493 25.8243 42.0962 25.4074 41.6431 25.1318C41.1039 24.8373 40.4971 24.6938 39.8851 24.7161C39.3627 24.7162 38.8442 24.8065 38.3518 24.9832C37.8464 25.1637 37.3693 25.4173 36.9356 25.7362C36.7953 25.8386 36.6592 25.9498 36.5254 26.0664V24.7174L34.533 25.0146V35.0178H36.5254V27.481C36.76 27.3251 37.0048 27.1852 37.2579 27.0624C37.5677 26.9137 37.8917 26.7974 38.2248 26.7154C38.5316 26.6388 38.8464 26.599 39.1624 26.5969C39.4526 26.5879 39.7416 26.6384 40.012 26.7455C40.2358 26.8416 40.4335 26.991 40.5883 27.1809C40.758 27.4019 40.875 27.6596 40.9301 27.934C41.0063 28.2884 41.0424 28.6505 41.0376 29.0132V35.0155H43.0299V28.5972C43.0313 28.2183 43.0061 27.8398 42.9544 27.4645C43.1803 27.3143 43.4143 27.1767 43.6551 27.0525C43.9596 26.8968 44.2807 26.7772 44.6122 26.696C44.9255 26.618 45.2467 26.578 45.5693 26.5768C45.8562 26.5698 46.1417 26.6204 46.4093 26.7257C46.637 26.8197 46.8383 26.9694 46.9952 27.1614C47.1651 27.3821 47.2822 27.6398 47.337 27.9142C47.4132 28.2687 47.4493 28.6309 47.4445 28.9937V35.0155H49.4369V28.5778C49.462 27.8286 49.3426 27.0817 49.0853 26.379C48.8825 25.8495 48.5113 25.4037 48.0305 25.1123Z" fill="white"/>
<path d="M52.3864 35.0165H54.3788V24.7161L52.3864 25.0133V35.0165Z" fill="white"/>
<path d="M54.5741 21.0612C54.4581 20.858 54.2935 20.6877 54.0955 20.566C53.8928 20.4404 53.6593 20.3752 53.4217 20.3781C53.1811 20.376 52.9446 20.441 52.738 20.566C52.5343 20.6869 52.3631 20.857 52.2399 21.0612C52.116 21.2669 52.0516 21.5038 52.0543 21.7449C52.0523 21.9888 52.1165 22.2287 52.2399 22.4381C52.3591 22.6455 52.5312 22.8166 52.738 22.9334C52.9466 23.0524 53.1823 23.1139 53.4217 23.1116C53.658 23.1147 53.8908 23.0531 54.0955 22.9334C54.2966 22.8157 54.4621 22.6444 54.5741 22.4381C54.6915 22.2266 54.7522 21.9876 54.7499 21.7449C54.7528 21.5051 54.6921 21.269 54.5741 21.0612Z" fill="white"/>
</svg>

<svg xmlns="http://www.w3.org/2000/svg" viewBox="0 0 55 40"><path fill="#fff" d="M0 15.003V1.005h4.593v13.998H0Zm10.843-11.77 2.641 11.77H8.457L5.303 1.005h2.82a2.655 2.655 0 0 1 1.764.64c.491.404.829.964.956 1.587Zm3.331 11.77V1.005h4.594v13.998h-4.594Zm8.063-8.675a2.737 2.737 0 0 1-1.409-.375 2.778 2.778 0 0 1-1.015-1.015 2.735 2.735 0 0 1-.375-1.41 2.685 2.685 0 0 1 .375-1.4 2.812 2.812 0 0 1 3.824-1.005c.415.244.761.59 1.005 1.005.251.424.38.908.375 1.4.005.495-.125.983-.375 1.41a2.8 2.8 0 0 1-1.005 1.015c-.424.251-.908.38-1.4.375Zm3.49 8.675V1.005h4.594v13.998h-4.594Zm10.409-6.348c.013.013.111.174.296.483.184.308.424.702.72 1.183a384.573 384.573 0 0 1 1.862 3.056c.289.48.617 1.022.986 1.626h-5.047l-.858-1.39c-.256-.414-.529-.86-.817-1.34-.29-.48-.576-.947-.858-1.4a71.236 71.236 0 0 1-.73-1.193 21.112 21.112 0 0 0-.424-.69 2.04 2.04 0 0 1-.334-.986c.019-.338.128-.665.315-.947.078-.131.223-.365.433-.7a216.7 216.7 0 0 0 1.598-2.603l.817-1.35.858-1.4H40l-3.904 6.369c-.12.189-.189.407-.197.63.013.236.095.463.236.652h.001ZM8.506 28.44a3.714 3.714 0 0 0-.977-.723 7.555 7.555 0 0 0-1.182-.485 13.311 13.311 0 0 0-1.289-.337 27.667 27.667 0 0 1-.947-.238 4.318 4.318 0 0 1-.782-.287 2.577 2.577 0 0 1-.595-.396 1.427 1.427 0 0 1-.381-.555 2.163 2.163 0 0 1-.127-.782c-.005-.277.038-.551.127-.813.08-.23.214-.437.39-.604.183-.17.391-.31.616-.415a2.87 2.87 0 0 1 .81-.238c.334-.048.67-.071 1.007-.07.306.001.613.018.917.05.309.032.616.082.919.149.294.064.584.147.869.247.267.093.525.21.772.347l.273-1.743a4.824 4.824 0 0 0-.87-.357 11.545 11.545 0 0 0-.927-.238 9.156 9.156 0 0 0-.957-.148 9.872 9.872 0 0 0-.996-.05 8.21 8.21 0 0 0-2.051.238 4.61 4.61 0 0 0-1.592.733c-.442.322-.798.75-1.035 1.248a4.08 4.08 0 0 0-.362 1.782c-.01.476.065.95.225 1.397.14.375.356.715.635 1 .275.279.591.513.937.694.367.191.75.35 1.143.475.41.132.83.245 1.26.337.352.079.677.162.977.248.278.077.55.18.81.307.224.107.432.247.616.416.174.166.31.369.4.594.104.271.153.56.147.852.005.309-.041.617-.137.91-.086.255-.218.49-.39.694a1.882 1.882 0 0 1-.626.475 3.12 3.12 0 0 1-.85.258 6.688 6.688 0 0 1-1.083.08 8.38 8.38 0 0 1-1.055-.07c-.365-.046-.73-.11-1.094-.189a10.83 10.83 0 0 1-1.065-.287A19.864 19.864 0 0 1 0 32.6l.254 1.96c.333.127.672.236 1.016.327.312.084.628.15.947.199.306.046.612.082.918.108.306.027.616.04.928.04.699.005 1.397-.069 2.08-.218a4.943 4.943 0 0 0 1.7-.713 3.34 3.34 0 0 0 1.133-1.297 4.439 4.439 0 0 0 .4-1.991 4.528 4.528 0 0 0-.225-1.506 2.935 2.935 0 0 0-.645-1.069ZM20.197 33.769a.881.881 0 0 1-.763-.317 1.723 1.723 0 0 1-.214-1.05l.039-4.08a4.822 4.822 0 0 0-.157-1.268 3.125 3.125 0 0 0-.468-1.011 2.668 2.668 0 0 0-.81-.733 4.12 4.12 0 0 0-1.183-.455 6.862 6.862 0 0 0-1.543-.159c-.411 0-.822.026-1.23.08-.386.049-.768.125-1.143.227-.348.096-.69.212-1.026.347l-.234 1.684a11.662 11.662 0 0 1 1.777-.495c.268-.052.54-.089.811-.11.267-.019.53-.029.791-.03.398-.008.796.039 1.182.14.282.071.54.214.752.416.189.196.323.438.39.703.084.326.124.663.118 1l-.002.497-2.283.157c-.78.022-1.55.197-2.266.515a3.258 3.258 0 0 0-1.338 1.1 2.584 2.584 0 0 0-.44 1.455c-.003.487.114.968.342 1.397.24.44.599.801 1.035 1.04a3.44 3.44 0 0 0 1.729.396 4.447 4.447 0 0 0 1.65-.277c.457-.182.875-.45 1.231-.793.136-.131.264-.27.385-.415.038.205.11.403.211.584.174.303.442.54.762.673.353.145.732.215 1.113.208.118 0 .231-.003.342-.01.109-.006.217-.023.322-.05l.284-.069a1.48 1.48 0 0 0 .224-.069l.215-1.327a1.714 1.714 0 0 1-.332.08c-.09.011-.182.018-.273.019Zm-3.253-.892c-.212.17-.441.316-.684.436a3.06 3.06 0 0 1-.762.258c-.273.053-.551.08-.83.079a2.17 2.17 0 0 1-.927-.179 1.279 1.279 0 0 1-.577-.504 1.497 1.497 0 0 1-.195-.783c-.019-.33.07-.658.254-.931.213-.252.5-.426.82-.495a5.88 5.88 0 0 1 1.524-.159h1.71l-.008 1.966c-.1.113-.208.218-.325.312ZM18.184 19.982h-2.109l-1.66 3.546h1.524l2.245-3.546ZM30.168 25.32a4.153 4.153 0 0 0-2.334-.624 5.888 5.888 0 0 0-1.446.188 6.238 6.238 0 0 0-1.739.748v-.916l-1.992.317v14.143h1.992V34.74l.04.018c.36.152.738.261 1.123.327.455.076.916.112 1.377.109.88.015 1.747-.21 2.51-.654a4.675 4.675 0 0 0 1.758-1.892 6.402 6.402 0 0 0 .654-3.02 6.234 6.234 0 0 0-.498-2.576 3.966 3.966 0 0 0-1.445-1.733Zm-.518 6.626a2.712 2.712 0 0 1-1.123 1.248 3.57 3.57 0 0 1-1.787.416 5.491 5.491 0 0 1-1.797-.297c-.094-.033-.196-.07-.293-.107v-6.251c.026-.012.053-.028.078-.04.287-.132.554-.245.801-.337a3.968 3.968 0 0 1 1.387-.258c.602-.02 1.2.113 1.738.386.471.26.84.676 1.045 1.179.249.643.365 1.33.342 2.02a4.783 4.783 0 0 1-.39 2.041ZM48.03 25.112a3.362 3.362 0 0 0-1.738-.416 4.518 4.518 0 0 0-1.543.268c-.503.183-.977.44-1.407.762a7.137 7.137 0 0 0-.693.594 2.472 2.472 0 0 0-1.006-1.188 3.407 3.407 0 0 0-1.758-.416c-.522 0-1.04.09-1.533.267a5.531 5.531 0 0 0-1.827 1.083v-1.349l-1.992.298v10.003h1.992V27.48c.235-.156.48-.296.733-.419.31-.148.634-.265.967-.347a3.98 3.98 0 0 1 .937-.118c.29-.01.58.041.85.148.224.097.422.246.576.436.17.22.287.479.342.753.076.354.112.716.108 1.08v6.002h1.992v-6.419a8.081 8.081 0 0 0-.076-1.133c.226-.15.46-.287.701-.412.305-.155.626-.275.957-.356.313-.078.635-.118.957-.12a2.15 2.15 0 0 1 .84.15c.228.094.43.243.586.435.17.221.287.479.342.753.076.355.112.717.107 1.08v6.022h1.993v-6.438a5.829 5.829 0 0 0-.352-2.199 2.543 2.543 0 0 0-1.054-1.267ZM52.386 35.017h1.993v-10.3l-1.993.296v10.003ZM54.574 21.061a1.39 1.39 0 0 0-.478-.495 1.25 1.25 0 0 0-.674-.188 1.298 1.298 0 0 0-.684.188c-.204.12-.375.291-.498.495a1.297 1.297 0 0 0-.186.684c-.002.244.063.484.186.693a1.353 1.353 0 0 0 1.182.674 1.282 1.282 0 0 0 1.152-.674c.117-.211.178-.45.176-.693a1.352 1.352 0 0 0-.176-.684Z"/></svg>
